X: 39611
T: Temperance
R: reel
M: 4/4
K: Gmajor
|:"G"G/G/G GF GABc|d/d/d eB dBAc|"Em"BE E/E/D EFGA|BGAF GFED|
"G"G/G/G GF GABc|d/d/d ee dBAc|"Em"BE E/E/D EFGA|"D"BGAF "G"G2G2:|
|:"Em"Be e/e/d e2ef|gfaf gfed|"D"Ad d/d/^c d2de|fdaf gfed|
"Em"Be e/e/d e2ef|geaf gfed|BE E/E/D EFGA|"D"BGAF "G"G2G2:|

